symbols/web/headphones/materialsymbolsoutlined/headphones_wght200fill1_48px.svg

<svg xmlns="http://www.w3.org/2000/svg" height="48" width="48"><path d="M15.4 40h-4.65q-1.15 0-1.95-.8T8 37.25V24q0-3.35 1.25-6.25t3.425-5.075Q14.85 10.5 17.75 9.25 20.65 8 24 8t6.25 1.25q2.9 1.25 5.075 3.425Q37.5 14.85 38.75 17.75 40 20.65 40 24v13.25q0 1.15-.8 1.95t-1.95.8H32.6V28.25h5.85V24q0-6.05-4.2-10.25T24 9.55q-6.05 0-10.25 4.2T9.55 24v4.25h5.85Z"/></svg>

<svg xmlns="http://www.w3.org/2000/svg" height="48" width="48"><path d="M15.4 40H10.75Q9.6 40 8.8 39.2Q8 38.4 8 37.25V24Q8 20.65 9.25 17.75Q10.5 14.85 12.675 12.675Q14.85 10.5 17.75 9.25Q20.65 8 24 8Q27.35 8 30.25 9.25Q33.15 10.5 35.325 12.675Q37.5 14.85 38.75 17.75Q40 20.65 40 24V37.25Q40 38.4 39.2 39.2Q38.4 40 37.25 40H32.6V28.25H38.45V24Q38.45 17.95 34.25 13.75Q30.05 9.55 24 9.55Q17.95 9.55 13.75 13.75Q9.55 17.95 9.55 24V28.25H15.4Z"/></svg>
